Breeze Round Light/devices/16/network-modem.svg

<svg xmlns="http://www.w3.org/2000/svg" viewBox="0 0 16 16">
  <defs id="defs3051">
    <style type="text/css" id="current-color-scheme">.ColorScheme-Text {color:#eff0f1;}</style>
  </defs>
    <path
       style="fill:currentColor;fill-opacity:1;stroke:none" 
       d="M 6,3 C 4.3431458,3 3,4.3431458 3,6 H 4 C 4,4.8954305 4.8954305,4 6,4 7.1045695,4 8,4.8954305 8,6 H 9 C 9,4.3431458 7.6568542,3 6,3 Z M 6,5 C 5.4477153,5 5,5.4477153 5,6 5,6.5522847 5.4477153,7 6,7 6.5522847,7 7,6.5522847 7,6 7,5.4477153 6.5522847,5 6,5 Z m -4,5 c 0,2 0,-1 0,1 0,2 2,2 2,2 h 8 c 0,0 2,0 2,-2 0,-2 0,1 0,-1 C 14,8 11.985019,8 11.985019,8 H 4 C 4,8 2,8 2,10 Z m 1,0 C 3,9 4,9 4,9 h 8 c 0,0 1,0 1,1 0,1 0,0 0,1 0,1 -1,1 -1,1 H 4 c 0,0 -1,0 -1,-1 z m 4,0 v 1 h 1 v -1 z m 2,0 v 1 h 1 v -1 z m 2,0 v 1 h 1 v -1 z"
       class="ColorScheme-Text"
        />
</svg>

<svg xmlns="http://www.w3.org/2000/svg" viewBox="0 0 16 16">
  <defs id="defs3051">
    <style type="text/css" id="current-color-scheme">
      .ColorScheme-Text {
        color:#232629;
      }
      </style>
  </defs>
    <path
       style="fill:currentColor;fill-opacity:1;stroke:none" 
       d="M 6 3 A 3 3 0 0 0 3 6 L 4 6 A 2 2 0 0 1 6 4 A 2 2 0 0 1 8 6 L 9 6 A 3 3 0 0 0 6 3 z M 6 5 A 1 1 0 0 0 5 6 A 1 1 0 0 0 6 7 A 1 1 0 0 0 7 6 A 1 1 0 0 0 6 5 z M 2 8 L 2 13 L 14 13 L 14 8 L 2 8 z M 3 9 L 13 9 L 13 12 L 3 12 L 3 9 z M 7 10 L 7 11 L 8 11 L 8 10 L 7 10 z M 9 10 L 9 11 L 10 11 L 10 10 L 9 10 z M 11 10 L 11 11 L 12 11 L 12 10 L 11 10 z "
       class="ColorScheme-Text"
        />
</svg>
